!!!!SEGMENT: 067-1-Sam-001.krn
!!!COM: Chopin, Fryderyk
!!!OTL: Mazurka No. 1
!!!OPS: Op. 67
!!!NIFC-rismID:
!!!OMD: Vivace.
!!!OMD: M.M. [quarter] = 160.
**kern	**kern	**dynam
*part1	*part1	*part1
*staff2	*staff1	*
*	*I"N.º 1.	*
*clefF4	*clefG2	*
*k[f#]	*k[f#]	*
*M3/4	*M3/4	*
*	*	*
=1	=1	=1
!	!	!LO:DY:rj
*ped	*	*
4D 4GG	4d 4B	mf
4D 4GG	4d 4B	.
4D 4GG	4d^< 4B	.
*Xped	*	*
.	.	.
=2	=2	=2
*ped	*	*
4D 4GG	8eL 8c	.
.	16rf	.
.	16dTJk 16B	.
4D 4GG	4c#X 4A#X	.
4D 4GG	4d^< 4B	.
*Xped	*	*
.	.	.
=3	=3	=3
*ped	*	*
!	!LO:TX:t=cres._:problem:dynamics with extention lines	!
!	!	!LO:HP:i:t=cres.
4D 4GG	8eL 8c	<
.	16rf	.
.	16dTJk 16B	.
4D 4GG	4c#X 4A#X	.
4D 4GG	4d^< 4B	.
*Xped	*	*
.	.	.
=4	=4	=4
*ped	*	*
4D 4GG	8eL 8c	.
.	16rf	.
.	16dTJk 16B	.
4D 4GG	4c#X 4A#X	.
*Xped	*	*
4D 4GG	4d^< 4B	[[
=5||	=5||	=5||
*ped	*	*
!	!	!LO:DY:rj
4GG 4GGG	4d^<	f
.	16qqb/LL	.
.	16qqcc/JJ	.
4d 4G	(8bL 8g	p
.	8a 8f#	<
4d 4G	8b 8g	.
*Xped	*	*
.	8ccJ 8a)	.
.	.	[
!!LO:LB:g=original
=6	=6	=6
.	16qqdd/LL	.
.	16qqee/JJ	.
4d 4G	8ddL 8b	.
.	8cc#XJ 8a#X	.
4d 4G	4dd 4b	.
4d 4G	4gg^> 4b	fz
=7	=7	=7
*ped	*	*
4DD	4d^>	.
.	16qqcc/LL	.
.	16qqdd/JJ	.
4c 4F# 4D	(8ccL 8a	<
.	8b 8g#X	.
*Xped	*	*
4r	8cc 8a	.
.	8eeJ 8cc)	[
=8	=8	=8
*	*^	*
*ped	*	*	*
!	!LO:TX:t=P:stem-side tuplet number:problem	!	!
4GG	(12eeL	4cc	.
.	12ff#	.	.
.	12eeJ)	.	.
4B 4G 4D	4.rbbyy	4.dd 4.b	>
4B 4G 4D	.	.	.
*Xped	*	*	*
.	8b 8g	8rdyy	]
*	*v	*v	*
=9	=9	=9
*ped	*	*
4GG	4d	sf
.	16qqb/LL	.
.	16qqcc/JJ	.
4d 4G	(8bL 8g	p
.	8a 8f#	.
4d 4G	8b 8g	<
*Xped	*	*
.	8ccJ 8a)	.
=10	=10	=10
.	16qqdd/LL	.
.	16qqee/JJ	.
4d 4G	8ddL 8b	.
.	.	[
.	8cc#XJ 8a#X	.
4d 4G	4dd 4b	.
*ped	*	*
4e:: 4B:: 4E::	4bb:: 4dd:: 4g#X::	fz
*Xped	*	*
=11	=11	=11
*	*^	*
4e 4A	4a	4gn	.
.	8qdd/	.	.
4e 4A	(8ccL	4g	.
.	8b	.	.
4c 4A 4D	8cc	4f#	.
.	8eeJ)	.	.
!!LO:LB:g=original
=12	=12	=12	=12
*^	*	*	*
!	!	!LO:TX:t=P:stem-side tuplet number:problem	!	!
4c	2.G	(12eeL	4f#	.
.	.	12ff#	.	.
.	.	12eeJ	.	.
4B	.	4.dd)	2g	.
4d	.	.	.	.
.	.	8b	.	.
=13||	=13||	=13||	=13||	=13!|:
4AAA^>	4ryy	4.a^>	4rG	f
4E	2AA	.	4c#X	.
.	.	(8gL	.	.
.	.	8qg/	.	.
8AL	.	8f#	4c#	.
8GJ	.	8eJ)	.	.
*v	*v	*	*	*
=14	=14	=14	=14
4A 4D	(8f#L	4cn	.
.	8dJ	.	.
*ped	*	*	*
4D 4GG	4g)	4B	.
4GGG	4ryy	4b	.
*Xped	*	*	*
*	*v	*v	*
=15	=15	=15
*ped	*	*
4CC	8ccL	.
.	16rdd	.
.	16eeJk	.
!	!LO:TX:a:t=P:note-head-side tuplet number:problem	!
4e 4c 4G	(12ggL	.
.	12aa	.
.	12ggJ	.
4e 4c 4G	8ff#L	.
*Xped	*	*
.	8eeJ)	.
!	!LO:TX:a:i:t=leggiero.	!
=16	=16	=16
.	8qdd/	.
*ped	*	*
4GG	8bbL	.
.	16rff	.
.	(16aak	>
4B 4G 4D	8gg)	.
.	16rff	.
.	(16ee	.
4r	8dd)	.
.	16rdd	.
*Xped	*	*
.	(16bJk	]
=17	=17	=17
*	*^	*
*ped	*	*	*
4AAA	4.a)	4rB	.
(8AAL	.	4c#X	.
8E	8gL	.	.
.	8qg/	.	.
8A	8f#	4c#	.
8GJ)	8eJ	.	.
!!LO:LB:g=original
=18	=18	=18	=18
4A 4D	8f#L	4cn	.
.	8dJ	.	.
*ped	*	*	*
4D 4GG	4g	4B	<
4GGG	4b\	4rGyy	.
.	.	.	[
*Xped	*	*	*
*	*v	*v	*
=19	=19	=19
*ped	*	*
4DD	8aL	.
.	16r	.
.	16ccJk	<
!	!LO:TX:a:t=P:note-head-side tuplet number:problem	!
4c 4F# 4D	(12eeL	.
.	12ff#	.
.	12eeJ	.
4c 4F# 4D	8ddL	.
*Xped	*	*
.	8ccJ)	.
=20	=20	=20
*ped	*	*
!	!LO:TX:a:i:t=legg.	!
4GG	8bL	>
.	16r	.
.	(16ak	.
4B 4D	8g)	.
.	16ra	.
.	(16e	.
*Xped	*	*
4r	8d)	.
.	16rf	.
.	(16BJk	.
=21	=21	=21
*^	*^	*
*ped	*	*	*	*
4AAA^>	4ryy	4.a)	4rG	f
4E	2AA	.	4c#X	.
*Xped	*	*	*	*
.	.	(8gL	.	.
.	.	8qg/	.	.
8AL	.	8f#	4c#	.
8GJ	.	8eJ)	.	.
*v	*v	*	*	*
=22	=22	=22	=22
4A 4D	(8f#L	4cn	.
.	8dJ	.	.
*ped	*	*	*
4D 4GG	4g)	4B	.
4GGG	4ryy	4b	.
*Xped	*	*	*
*	*v	*v	*
=23	=23	=23
*ped	*	*
4CC	8ccL	.
.	16r	.
.	16eeJk	.
!	!LO:TX:a:t=P:note-head-side tuplet number:problem	!
4e 4c 4G	(12ggL	.
.	12aa	.
.	12ggJ	.
4e 4c 4G	8ff#L	.
*Xped	*	*
.	8eeJ)	.
!!LO:LB:g=original
=24	=24	=24
.	8qdd/	>
*ped	*	*
!	!LO:TX:a:i:t=leggiero.	!
4GG	8bbL	.
.	16rff	.
.	(16aak	.
4B 4G 4D	8gg)	.
.	16rff	.
.	(16eek	.
4r	8dd)	.
.	16r	.
*Xped	*	*
.	(16bJk	]
=25	=25	=25
*	*^	*
*ped	*	*	*
4AAA	4.a)	4rB	.
(8AAL	.	4c#X	.
8E	8gL	.	.
*Xped	*	*	*
.	.	.	.
.	8qg/	.	.
8A	8f#	4c#	.
8GJ)	8eJ	.	.
=26	=26	=26	=26
4A 4D	8f#L	4cn	.
.	8dJ	.	.
*ped	*	*	*
4D 4GG	4g	4B	<
4GGG	4b\	4rGyy	[[
*Xped	*	*	*
*	*v	*v	*
=27	=27	=27
*ped	*	*
4DD	8aL	.
.	16r	.
.	16ccJk	<
!	!LO:TX:a:t=P:note-head-side tuplet number:problem	!
4c 4F# 4D	(12eeL	.
.	12ff#	.
.	12eeJ	.
4c 4F# 4D	8ddL	.
*Xped	*	*
.	8ccJ)	.
=28	=28	=28
*ped	*	*
4GG	8bL	.
.	16r	>
.	(16ak	.
4B 4D	8g)	.
.	16rf	.
*Xped	*	*
.	(16ek	.
4r	8d)	.
.	16rf	.
!	!LO:TX:t=P:slur begins without an end:problem	!
.	16BJk	.
!!LO:PB:g=original
=29||	=29||	=29||
*k[]	*k[]	*
*ped	*	*
!	!	!LO:DY:rj
4GG 4GGG	4G	ff
!	!	!LO:DY:rj
2f 2d 2G	2gg^> 2b 2g	fz
*Xped	*	*
.	.	.
!	!LO:TX:a:i:t=scherzando.	!
=30	=30	=30
.	16qqee/LL	.
.	16qqff/JJ	.
*ped	*	*
!	!	!LO:DY:rj
4C	8.eeL< 8.g	p
.	16dd#XJk 16f#X	.
4e 4c 4G	4ee\ 4g\	.
*Xped	*	*
4e^> 4c 4G	4ffn^> 4a	.
=31	=31	=31
.	16qqdd/LL	.
.	16qqee/JJ	.
*ped	*	*
4GG	8.ddL 8.f	.
.	16cc#XJk 16e	.
4B 4G 4D	4dd 4f	.
*Xped	*	*
4B^> 4G 4D	4ee^> 4g	.
=32	=32	=32
*^	*	*
.	.	16qqcc/LL	.
.	.	16qqdd/JJ	.
*ped	*	*	*
4r	2.C	8.ccL 8.e	.
.	.	16bJk 16d#X	.
*Xped	*	*	*
(<4c 4G	.	(4cc 4e	.
4c 4F#X)	.	4a 4d#)	.
*v	*v	*	*
=33	=33	=33
*ped	*	*
4G\ 4GG\	4g 4f 4dn 4B	ff
2f 2d 2G	2gg^> 2b 2g	fz
*Xped	*	*
.	.	.
=34	=34	=34
.	8qff/	.
*	*^	*
4e 4c	8eeL	4cc 4g	pp
.	8dd#XJ	.	.
4e 4c	4ee	4cc 4g	.
4f^> 4c 4F	4ff	4cc 4a	.
=35	=35	=35	=35
.	8qee/	.	.
4f 4B	8ddL	4a	.
.	8cc#XJ	.	.
4f 4B	4dd	4a	.
4B^> 4E	4ee	4g#X	.
!!LO:LB:g=original
=36	=36	=36	=36
.	8qdd/	.	.
4e 4A	8ccL	4gn	.
.	8bJ	.	.
4e 4A	4cc	4g	.
4A 4D	4a	4fn^<	.
*	*v	*v	*
=37	=37	=37
*ped	*	*
4G\ 4GG\	4g 4f 4d 4B	ff
2f^> 2d 2G	2gg 2b 2g	.
*Xped	*	*
.	.	.
=38	=38	=38
8qF#X/	.	.
*^	*	*
!	!	!LO:TX:i:t=marcato.	!
4G	2.C	8eetL> 8g	.
.	.	16r	.
.	.	16dd#XJk 16f#X	.
8qF#/	.	.	.
2G	.	4ee\ 4g\	.
.	.	4ffn^> 4a	.
=39	=39	=39	=39
8qF#X/	.	.	.
4G	2.C	8ddTL 8f	.
.	.	16r	.
.	.	16cc#XJk 16e	.
8qF#/	.	.	.
2G	.	4dd 4f	.
.	.	4ee^> 4g	.
=40	=40	=40	=40
8qF#X/	.	.	.
4G	2.C	8ccL 8et>	.
.	.	16r	.
.	.	16bJk 16d#X	.
8qF#/	.	.	.
2G	.	4cc 4e	.
.	.	4a^< 4c	.
*v	*v	*	*
=41	=41	=41
*ped	*	*
4G 4GG	4g 4f 4B	ff
2f 2d 2G	2gg^< 2b 2g	.
*Xped	*	*
.	.	.
=42	=42	=42
*	*^	*
4c 4C	8eetL	4b-X 4g	pp
.	8ddJ	.	.
4c 4C	4ee	4b- 4g	.
4c 4F	4ff	4a^< 4f	.
!!LO:LB:g=original
=43	=43	=43	=43
4c 4F	8ddTL	4a-X 4f	.
.	8cc#XJ	.	.
4c 4F	4dd	4a- 4f	.
4B 4G	4ee	4g^< 4f	.
=44	=44	=44	=44
!	!LO:TX:i:t=riten.	!	!
4c 4G 4C	8ccTL	4g 4e	.
.	8bJ	.	.
4c 4A	4cc	4a 4e	.
4c 4A 4D	4dd	4f#X 4d	.
*	*v	*v	*
=45||	=45||	=45||
*k[f#]	*k[f#]	*
*ped	*	*
!	!LO:TX:a:B:t=a Tempo.	!
4GG 4GGG	4d^<	.
.	16qqb/LL	.
.	16qqcc/JJ	.
4d 4G	(8bL 8g	p<
.	8a 8f#	.
4d 4G	8b 8g	.
*Xped	*	*
.	8ccJ 8a)	[
=46	=46	=46
.	16qqdd/LL	.
.	16qqee/JJ	.
4d 4G	8ddL< 8b	.
.	8cc#XJ 8a#i	.
4d 4G	4dd 4b	.
4d 4G	4gg^> 4b	.
=47	=47	=47
*ped	*	*
4DD	4d^<	.
.	16qqcc/LL	<
.	16qqdd/JJ	.
4c 4F# 4D	(8ccL< 8a	.
.	8b 8g#X	.
*Xped	*	*
4r	8cc 8a	.
.	8eeJ 8cc)	.
.	.	[
=48	=48	=48
*	*^	*
*ped	*	*	*
!	!LO:TX:t=P:stem-side tuplet number:problem	!	!
4GG	(12eeL	4cc	.
.	12ff#	.	.
.	12eeJ)	.	.
4B 4G 4D	4.dd\ 4.b\	4.rbbyy	>
4B 4G 4D	.	.	.
*Xped	*	*	*
.	8b 8g	8rcyy	]
*	*v	*v	*
!!LO:LB:g=original
=49	=49	=49
*ped	*	*
4GG	4d	sf
.	16qqb/LL	.
.	16qqcc/JJ	.
4d 4G	(8bL 8g	p
.	8a 8f#	<
4d 4G	8b 8g	.
*Xped	*	*
.	8ccJ 8a)	.
=50	=50	=50
.	16qqdd/LL	.
.	16qqee/JJ	.
4d 4G	8ddL< 8b	.
.	8cc#XJ 8a#X	[
4d 4G	4dd\ 4b\	.
*ped	*	*
4e:: 4B:: 4E::	4bb^>:: 4dd:: 4g#X::	fz
*Xped	*	*
=51	=51	=51
*	*^	*
4e 4A	4a	4gn	.
.	(>8qdd/	.	.
4e 4A	8ccL	4g	.
.	8b	.	.
4c 4A 4D	8cc	4f#	.
.	8eeJ)	.	.
=52	=52	=52	=52
*^	*	*	*
!	!	!LO:TX:t=P:stem-side tuplet number:problem	!	!
4c	2.G	(12eeL	4f#	.
.	.	12ff#	.	.
.	.	12eeJ	.	.
4B	.	4.dd)	2g	.
4d	.	.	.	.
.	.	8b	.	.
=53	=53	=53	=53	=53
*ped	*	*	*	*
4AAA^>	4rByy	4.a^	4rc	f
4E	2AA	.	4c#X	.
.	.	(8gL	.	.
*Xped	*	*	*	*
.	.	.	.	.
.	.	8qg/	.	.
8AL	.	8f#	4c#	.
8GJ	.	8eJ)	.	.
*v	*v	*	*	*
=54	=54	=54	=54
4A 4D	(8f#L	4cn	.
.	8dJ	.	.
4D 4GG	4g)	4B	.
*ped	*	*	*
4GGG	4rGyy	4b	.
*Xped	*	*	*
.	.	.	.
*	*v	*v	*
!!LO:LB:g=original
=55	=55	=55
*ped	*	*
4CC	8ccL	.
.	16rcc	.
.	16eeJk	.
!	!LO:TX:a:t=P:note-head-side tuplet number:problem	!
4e 4c 4G	(12ggL	.
.	12aa	.
.	12ggJ	.
4e 4c 4G	8ff#L	.
*Xped	*	*
.	8eeJ)	.
=56	=56	=56
.	8qdd/	>
*ped	*	*
!	!LO:TX:a:i:t=leggiero.	!
4GG	8bbL	.
.	16rff	.
.	(16aak	.
4B 4G 4D	8gg)	.
.	16r	.
.	(16ee	.
4r	8dd)	.
.	16rcc	.
*Xped	*	*
.	(16bJk	]
=57	=57	=57
*	*^	*
*ped	*	*	*
4AAA	4.a)	4rB	.
(8AAL	.	4c#X	.
8E	8gL	.	.
*Xped	*	*	*
.	.	.	.
.	8qg/	.	.
8A	8f#	4c#	.
8GJ)	8eJ	.	.
=58	=58	=58	=58
4A 4D	8f#L	4cn	.
.	8dJ	.	.
4D 4GG	4g	4B	<
*ped	*	*	*
4GGG	4b\	4rAyy	[[
*Xped	*	*	*
*	*v	*v	*
=59	=59	=59
*ped	*	*
4DD	8aL	.
.	16r	.
.	16ccJk	<
!	!LO:TX:a:t=P:note-head-side tuplet number:problem	!
4c 4A 4D	(12eeL	.
.	12ff#	.
.	12eeJ	.
4c 4A 4D	8.dd\L>	.
*Xped	*	*
.	.	.
.	16f#Jk)	.
=60	=60	=60
*ped	*	*
4B 4G	4g	f
4GG 4GGG	4ggg^< 4bb 4gg	.
*Xped	*	*
4r	4r	.
==	==	==
*-	*-	*-
!!!system-decoration: {(s1,s2)}
!!!system-decoration: {(s1,s2)}
!!title: @{OTL}; @{OPS} @{ONM} publisher: @{PPR}
!!!RDF**kern: > = above
!!!RDF**kern: < = below
!!!RDF**kern: N = linked
!!!RDF**dynam: > = "dim."
!!!RDF**dynam: < = "cres.", fontstyle="italic"
!!!RDF**kern: i = editorial accidental
!!!ENC: Emilia Ziętek
!!!END: 2019-12-21
!!!EED: Jędrzej Mróz
!!!EST: revision finished: 2020-01-09
